X:1
T:Title
%%score { 1 | 2 }
L:1/8
M:4/4
K:D
V:1 treble nm="Grand Piano"
V:2 bass 
V:1
 z4 z2[Q:1/4=100] [FA]2 | [FA]>[EG] [DF]>[EG] [FA]2 [Gd]2 | [Fd]6 [GB]2 | %3
 [FA]>[EG] [DF]>[EG] [FA]2 [DF]2 |[M:3/4] [CE]6 |[M:1/4] [EG]2 |[M:4/4] F>E D>E F2 [FA]2 | B6 d2 | %8
 d2 A2 A2 F2 | [CE]4 D4 | F2 [FA]2 [FA]2 [FA]2 | [GB]4 [FA]4 | [Fd]2 [Fd]2 c2 B2 | d4 c3 A | %14
 [Fd]>[Fd] [Ad]>[Gd] [Fd]3 [DFA] | [DGB]>[DBd] [DAc]>[DGB] [DFA]3 [B,DG] | %16
 [A,DF]2 [DGB]2 [DFA]2 [A,DF]2 |[M:7/8][K:bass] [G,CE]- [G,CE]3 [F,D]3 |] %18
V:2
 z4 z2 [D,D]2 | [D,D]>[D,A,] [D,A,]>[D,A,] [D,D]2 [D,B,]2 | [D,A,]6 [D,D]2 | %3
 [D,D]>[D,A,] [D,A,]>[D,A,] [D,D]2 [D,A,]2 |[M:3/4] [A,,A,]6 |[M:1/4] [A,,A,]2 | %6
[M:4/4] [D,A,D]>[D,G,A,] [D,F,A,]>[D,G,A,] [D,A,D]2 [D,D]2 | [G,DG]6 [^G,B,=F]2 | %8
 [A,F]2 [A,DF]2 [A,DF]2[K:bass] [A,D]2 | [A,,G,]4 [D,F,]4 | [D,A,D]2 [D,D]2 [D,D]2 [D,D]2 | %11
 [G,D]4 [D,D]4 | [D,A,]2 [D,A,]2 [E,A,E]2 [E,^G,E]2 | [A,B,E]4 [A,E]3 [A,G] | %14
 [D,A,]>[D,D] [D,C]>[D,B,] [D,A,]3 D, | G,>G, G,>G, D,3 D, | D,2 D,2 D,2 D,2 | %17
[M:7/8] A,,- A,,3 D,3 |] %18

